packages/icons/svg/Various_PaintCan_24px.svg

<svg xmlns="http://www.w3.org/2000/svg" viewBox="0 0 24 24"><path d="M22 6.89a10.9 10.9 0 00-.15-1.79 2 2 0 00-2-1.64H19V3a1 1 0 00-1-1H6a1 1 0 00-1 1v.46h-.9A2 2 0 002.15 5.1 10.81 10.81 0 002 6.89 10 10 0 005 14v7a1 1 0 001 1h12a1 1 0 001-1v-7a10 10 0 003-7.11zM7 7h1v2.5a1.5 1.5 0 003 0V7h6v6.13a8 8 0 01-10 0zm10-3v2h-7v3.5a.5.5 0 01-1 0V6H7V4zM4 6.89a10.94 10.94 0 01.1-1.43H5v5.3a7.93 7.93 0 01-1-3.87zM17 20H7v-4.46a9.93 9.93 0 0010 0zm2-14.55h.87A8.11 8.11 0 0120 6.89a7.93 7.93 0 01-1 3.87z"/></svg>

<svg xmlns="http://www.w3.org/2000/svg" viewBox="0 0 24 24"><defs></defs><g id="Icon"><path  d="M22,6.89a10.9,10.9,0,0,0-.15-1.79,2,2,0,0,0-2-1.64H19V3a1,1,0,0,0-1-1H6A1,1,0,0,0,5,3v.46H4.1A2,2,0,0,0,2.15,5.1,10.81,10.81,0,0,0,2,6.89,10,10,0,0,0,5,14v7a1,1,0,0,0,1,1H18a1,1,0,0,0,1-1V14A10,10,0,0,0,22,6.89ZM7,7H8V9.5a1.5,1.5,0,0,0,3,0V7h6v6.13a8,8,0,0,1-10,0ZM17,4V6H10V9.5a.5.5,0,0,1-1,0V6H7V4ZM4,6.89a10.94,10.94,0,0,1,.1-1.43H5v5.3A7.93,7.93,0,0,1,4,6.89ZM17,20H7V15.54a9.93,9.93,0,0,0,10,0ZM19,5.45l.87,0A8.11,8.11,0,0,1,20,6.89a7.93,7.93,0,0,1-1,3.87Z"/></g></svg>
